X:1
T:Lystra, CM
T:Lystra, CM
T:Charles Wesley, Jr. (1757-1834)
T:Public Domain Courtesy of the Cyber Hymnal™
C:Charles Wesley, Jr. (1757-1834)
Z:Public Domain
Z:Courtesy of the Cyber Hymnal™
%%score ( 1 2 ) 3
L:1/8
M:4/4
K:Eb
V:1 treble 
V:2 treble 
V:3 bass 
V:1
 [GB]2 [EG]2 [FA]2 [EG]2 | [DF]2 [DB]2 [CE]2 F2 | [B,D]2 [B,E]4 F2 | [EG]3 A [EB]2 [Ec]2 | %4
 [DA]2 [EG]2 [EG]2 [DF]2- | [DF]2 [DF]2 [DF]2 D2 | [B,E]2 [CF]2 F2 [=EG]2 | %7
 [FA]3 [GB] [Ac]G [Fc]2 | B2 [EG]2 [Ec]3 B | [EA]2 [EG]A F2 [DF]2 | E8 |] %11
V:2
 x8 | x8 | x8 | x8 | x8 | x8 | x8 | x8 | x8 | x8 | E8 |] %11
V:3
 [E,B,]2 [E,B,]2 [A,,C]2 [B,,B,]2- | [B,,B,]2 [G,,B,]2 [C,G,]2 [A,,F,]2 | %2
 [B,,F,]2 [E,G,]4 [D,B,]2 | [E,B,]3 F, [G,B,]2 A,2 | F,2 [E,B,]2 [B,,B,]4- | %5
 [B,,B,]2 [B,,B,]2 [A,B,]4 | [G,B,]2 [F,A,]2 [A,C]2 [G,B,]2 | [F,C]2 B,2 [F,A,]E, [D,A,]2- | %8
 [D,A,]2 [E,G,]2 [A,,A,]2 B,,2 | [C,A,]2 [B,,B,]2 A,2 [B,,B,]2 | [E,G,]8 |] %11

